X:1
T:Mug of Brown Ale
M:6/8
L:1/8
K:Em
"Am"eAA "/B"fAA|"/C"gAA "/D"afe|"G"dBA "/F#"G2A|"Em"B2A "/G"B^cd|!
"Am"eAA "/B"fAA|"/C"gAA "/D"afe|"G"dBB "/E"gBB|"/G"BAG "Am"A3:|]!
"Am"efg "/B"a2a|"/C"aba "/D"afe|"G"def "/F#"g2g|"Em"gba "/G"gfe|!
"Am"efg "/B"a2a|"/C"aba "/D"afe|"G"dBB "Em"gBB|1"G"BAG "FMaj"A3:|2"G"BAG "Am"A3|]!
